X: 20443
M: C|
L: 1/8
K: D
|:\
|:\
defg afdA | defg a2gf | gaba gfed | caaa agfe |\
defg afdA | defg a2gf | eAfA gAfA | edce d2f2 :|


